svgs/regular/chess-queen.svg

<svg xmlns="http://www.w3.org/2000/svg" viewBox="0 0 512 512"><!-- Font Awesome Pro 6.0.0-alpha2 by @fontawesome - https://fontawesome.com License - https://fontawesome.com/license (Commercial License) --><path d="M256 112C286.879 112 312.006 86.875 312.006 56S286.879 0 256 0S199.994 25.125 199.994 56S225.121 112 256 112ZM504.904 184.125L476.401 168.25C473.9 166.5 470.9 165.625 467.9 165.625C462.399 165.75 457.273 168.5 454.148 172.875C445.147 184.875 431.02 192 416.019 192C412.893 192 409.893 191.75 406.893 191.125C383.765 186.875 368.013 164.875 368.013 141.375C368.013 134 362.012 128 354.636 128H315.882C309.881 128 304.256 132 303.005 137.875C298.255 160.125 278.753 176 256 176C233.247 176 213.745 160.125 208.995 137.875C207.744 132 202.244 128 196.118 128H157.364C149.988 128 143.987 134 143.987 141.375C143.987 167.125 124.985 190.125 99.357 191.875C98.232 192 97.107 192 95.981 192C80.855 192 66.728 184.875 57.727 172.75C54.602 168.375 49.601 165.75 44.1 165.625C41.1 165.625 38.225 166.5 35.724 168.25L7.096 184.25C0.345 188.625 -1.905 197.5 1.72 204.625L109.858 432H162.989L69.853 236.375C78.354 238.75 87.105 240 95.981 240C98.107 240 100.357 239.875 102.607 239.75C136.611 237.5 165.614 216.75 180.741 187.5C198.993 210.5 226.622 224 255.875 224C285.253 224 312.882 210.625 331.134 187.75C344.385 213.75 368.638 232.875 398.142 238.375C404.017 239.5 410.018 240 416.019 240C424.77 240 433.521 238.875 442.022 236.5L349.011 432H402.142L510.28 204.625C513.905 197.375 511.655 188.625 504.904 184.125ZM424.02 464H87.98C74.724 464 63.978 474.745 63.978 488V488C63.978 501.255 74.724 512 87.98 512H424.02C437.276 512 448.022 501.255 448.022 488V488C448.022 474.745 437.276 464 424.02 464Z"/></svg>

<svg xmlns="http://www.w3.org/2000/svg" viewBox="0 0 512 512"><!-- Font Awesome Pro 5.15.1 by @fontawesome - https://fontawesome.com License - https://fontawesome.com/license (Commercial License) --><path d="M256 112a56 56 0 1 0-56-56 56 56 0 0 0 56 56zm248.87 72.16l-28.51-15.92a15.09 15.09 0 0 0-8.45-2.59 17.59 17.59 0 0 0-13.84 7.27A47.48 47.48 0 0 1 416 192a50.79 50.79 0 0 1-9.16-.85C383.7 186.86 368 164.93 368 141.4a13.4 13.4 0 0 0-13.4-13.4h-38.77c-6 0-11.61 4-12.86 9.91a48 48 0 0 1-93.94 0c-1.25-5.92-6.82-9.91-12.86-9.91H157.4a13.4 13.4 0 0 0-13.4 13.4c0 25.69-19 48.75-44.67 50.49-1.12.07-2.23.11-3.33.11a47.47 47.47 0 0 1-38.21-19.26 17.17 17.17 0 0 0-13.61-7.13 15.16 15.16 0 0 0-8.48 2.59l-28.57 16a16 16 0 0 0-5.44 20.47L109.84 432H163L69.91 236.32A94.78 94.78 0 0 0 96 240c2.17 0 4.37-.07 6.57-.22 34.06-2.31 63.1-23 78.23-52.22a95.81 95.81 0 0 0 150.29.14c13.29 26 37.51 45.18 67 50.64A98.41 98.41 0 0 0 416 240a96.13 96.13 0 0 0 26-3.55L349 432h53.16l108.15-227.37a16 16 0 0 0-5.44-20.47zM432 464H80a16 16 0 0 0-16 16v16a16 16 0 0 0 16 16h352a16 16 0 0 0 16-16v-16a16 16 0 0 0-16-16z"/></svg>
